X:1
T:Ballade de Villon à s'amye
T:Ballade de Villon à s'amye
T:Claude Debussy
T:François Villon 
T:Trois Ballades de François Villon
C:Claude Debussy
Z:François Villon
%%score 1 { ( 2 3 ) | ( 4 5 6 ) }
L:1/8
Q:1/4=45
M:4/4
K:A
V:1 treble nm="Oboe"
V:2 treble nm="Piano"
V:3 treble 
V:4 bass 
V:5 bass 
V:6 bass 
V:1
"^Triste et lent" z4"^(avec une expression où il y a\nautant d'angoisse que de regret)\n"!p! z C C E | %1
w: Faul- se beau-|
 E2 (D2 A) G G F | c4!<(! (3!courtesy!^F F A!<)! A2 |[M:2/4] (3z C C (3D!>(! =F G | %4
w: té qui tant me cous- te|cher, Rude en ef- fect,|hy- po- cri- te doul-|
[M:4/4] D2!>)! z2 z2 (D2 | G2) G G G G (3G G B | B4 z B B d | %7
w: ceur, A-|mour du- re plus que fer, à mas-|cher; Nom- mer que|
[Q:1/4=40]"^T""^Cédez" c B B G G ^E D2 | %8
w: puis de ma def- fa- çon sœur.|
[Q:1/4=45]"^Mouvt" z2 (3C C E E z/ !tenuto!.D/ !tenuto!.D/ !tenuto!.D/ !tenuto!.E/ !tenuto!.F/ | %9
w: Char- me fé- lon, la mort d'ung po- vre|
 !tenuto!.G2!<(! (3F G A!<)! B F F/ F/ F/ G/ | %10
w: cueur, Or- gueil mus- sé, qui gens met au mou-|
 B2"^très appuyé" !tenuto!B2 !tenuto!=c !tenuto!c !tenuto!c !tenuto!c | %11
w: rir? Yeulx sans pi- tié, ne|
 !tenuto!B !tenuto!B !tenuto!B !tenuto!e !tenuto!=c2 (A2 | G F E2) z!<(! D D/ D/ E/ F/ | %13
w: veult droict de ri- gueur, Sans|em- pi- rer, ung po- vre se- cou-|
[Q:1/4=40]"^T" G4 z4!<)! |[Q:1/4=45]"^Mouvt" C2 C E (3E !tenuto!^D D (3D F A | %15
w: rir?|Mieulx m'eust va- lu a- voir es- té cri-|
 A!<(! !tenuto!A !tenuto!c !tenuto!e!<)! !tenuto!e!>(! e/ c/ c A/ F/!>)! | F2 z2 z E E =G | %17
w: ier Ail- leurs se- cours, c'eust es- té mon bon-|heur: Rien ne m’eust|
 (3F2 ^D2 D2 (3D E =G _B2 | z2[Q:1/4=50]"^En serrant" (3_A/ A/ =c/ c/ A/!<(! A/ A/ _B/ d/!<)! d2 | %19
w: sceu de ce fait ar- ra- cher;|Trot- ter m'en fault en fuyte à des- hon- neur!|
 z/!<(! !tenuto!d/!<)! _e z/!<(! !tenuto!=e/!<)! =f z/!<(! d/ _e/ B/ =c/ =f/ f!<)! | %20
w: Ha- ro, ha- ro, le grant et le mi- neur!|
[M:2/4][Q:1/4=45]"^Mouvt" z2!p! =F!>(! F/ A/!>)! |[M:4/4] A2 z2 z4 | z2 D2 A G G F | %23
w: Et qu'est ce-|cy?|Mour- ray sans coup fe-|
 c2!<(! (3c c !tenuto!=f!<)! !tenuto!f e e/ ^d/ d/ c/ | %24
w: rir, Ou pi- tié peult, se- lon ces- te te-|
 !breath!B!p! (A!>(! G F!>)! E) D !tenuto!D/ D/ E/ F/ |[M:2/4] F2 z2 || %26
w: neur, Sans em- pi- rer, ung po- vre se- cou-|rir.|
[M:4/4][Q:1/4=42]"^Doux et Mélancolique" z2 z =F E ^F C2 | =C C (3^D D E =G2!<(! (^C2!<)! | %28
w: Ung temps vien- dra|qui fe- ra des- sei- cher, Jau-|
 =F2) z!>(! (_A!>)! =C2) (_D2 | (3=F2 F2 _A2 !tenuto!A4) | %30
w: nir, fles- trir vostre|es- pa- nie fleur:|
[Q:1/4=53]"^En animant""_Ironique et léger" z2 z =F E/ A/ !tenuto!A z (.B | %31
w: J'en ris- se lors, se|
 .^F .F .=F .G .D2) z !tenuto!B | !tenuto!e2 z2!>(! (.d .B)!>)! z2 | %33
w: tant peus- se mar- cher, Mais|las! nen- ny,|
 z2 !tenuto!_A2!>(! A A =G =F!>)! |[Q:1/4=45]"^Retenu" D z (3(.E .E .=G G2) z2 | %35
w: ce se- roit donc fo-|leur, Viel je se- ray;|
 z !breath!._E !tenuto!E/ E/ =F/ A/[Q:1/4=50]"^T""^Serrez" A2 z2 || z4 z!f! !tenuto!e z e/ d/ | %37
w: vous, laide et sans cou- leur.|Or, beu- vez|
[M:2/4] (3d (=C!>(! D (3A E D!>)! ||[M:4/4][Q:1/4=45]"^Mouvt" ^C2) z2!p! F2 G A | %39
w: fort, tant que ru peut cou-|rir; Ne don- nez|
 B2!<(! F2 F A A G!<)! | !breath!c!p! A G F E z/!>(! (.D/ .D/ .D/ .E/ .E/ | !tenuto!F2)!>)! z2 z4 | %42
w: pas a tous ces- te dou-|leur, Sans em- pi- rer, ung po- vre se- cou-|rir.|
!f! !tenuto!B2 (F B) B2 ^A G | (3G F G B2 z B B ^d | c B G F F ^A A2 | z2!p! C2 C2 E2 | %46
w: Prince a- mou- reux, des a-|mans le grei- gneur, Vos- tre mal|gré ne voul- droye en- cou- rir;|Mais tout franc|
 E2 D2!<(! A G G F!<)! | c[Q:1/4=40]"^En Retenant"!p! A G F E z/!pp! (.D/ .D/ .D/ .E/ .E/ | %48
w: cueur doit, par Nos- tre Sei-|gneur, Sans em- pi- rer, ung po- vre se- cou-|
 !tenuto!F4) z4 |] %49
w: rir.|
V:2
!p!!>(! !tenuto!c2!>)!!>(! !tenuto!c4!>)!!>(! !tenuto!c2!>)! | !tenuto!c6 z2 | %2
!p! !tenuto!c2 !tenuto!c6 |[M:2/4]!p! [!courtesy!^FAc]2!>(! [D=FG]2!>)! | %4
[M:4/4]!p!!>(! [!courtesy!=B,D=F]2!>)!!>(! [^A,C]4 [B,D]2!>)! |!p! !tenuto![CG]8 | %6
!p! !tenuto![CG]8 | (!tenuto![CG]2 !tenuto![CG]2 !tenuto![CG]2) z2 | %8
!p!!>(! !tenuto!c2 !tenuto!c2!>)!!>(! !tenuto!c4!>)! |!p! !tenuto!c2 !tenuto!c2!<(! (c3 d)!<)! | %10
!mf!!>(! B4!>)!!>(! =c4!>)! |!mf!!>(! B4!>)!!>(! =c3!>)! z | z8 | %13
!p!!>(!"^Cédez" ([CE]/4[B,D]7/4)!>)!!>(! ([C^E]/4[B,D]7/4-) (([B,D]2 [EG]2))!>)! | %14
!p! !tenuto!c2 !tenuto!c2!<(! !tenuto!c4-!<)! |!mf! [DFc] !tenuto![CEB]3 z!>(! ([A,CG]2!>)! E) | %16
[K:bass]!p! F,4!<(! [=G,_B,]4!<)! |!p! (F,4 [=G,_B,]4) |[K:treble]!p!!<(! x4!<)!!mf!!<(! x4!<)! | %19
!f!!<(! (!tenuto![d=g]/4!<)![_d_e]7/4)!f!!<(! (!tenuto![=c=f]/4!<)![_c_d]7/4)!f!!<(! (!tenuto![=dg]/4!<)![_de]7/4)!f!!<(! (!tenuto![=cf]/4!<)![_c_d]7/4) | %20
[M:2/4] z4 |[M:4/4]!p! !tenuto!c4 !tenuto!c4 | !tenuto!c4 x2 z2 | %23
 !tenuto!c2 !tenuto!c2!mf!!>(! [cc']4!>)! | z4!p!!>(! !tenuto![FG]3!>)! z |[M:2/4] z4 || %26
[M:4/4] z (.[=CEF] .[B,^D=G]2) z (.[_B,=DE] .[A,^C=F]2) | %27
 z (.[=CE^F] .[=B,^D=G]2) z (.[_B,=DE] .[A,^C=F]2) | %28
!pp! z ([_B,D] [=C=F]2-!<(! [A,CF][CE_A] [_DF_B]2)!<)! | %29
!pp! z [_B,D] [=C=F]2-!<(! [A,CF][CE_A] [_DF_B]2!<)! | %30
!p!!<(! z z/4 (=A/4=B/4^f/4!<)! [^G^c]2)!p!!<(! z z/4 (=G/4B/4e/4!<)! [FB]2) | %31
!p!!<(! z z/4 (A/4B/4f/4!<)! [Gc]2)!mf!!<(! z/4 (=c/4d/4b/4)[Be]-!<)! [Be]2 | z8 | z8 | %34
[K:bass]!p! =F,6[K:treble] [EB]2 | %35
[K:bass]!p! E,4!>(! ([A,D]!>)![K:treble].[DA]) z3/4"_rinf."!mp![I:staff +1] (D/4!<(!A/4[I:staff -1]d/4a/4!<)!d'/4) || %36
 z/4!f!!<(! (=c'/4d'/4a'/4!tenuto!.e')!<)! z/4!f!!<(! (=c/4d/4a/4!tenuto!.e)!<)! z4 |[M:2/4] z4 || %38
[M:4/4]!p! !tenuto!c4 !tenuto!c4 | !tenuto!c6 z2 | x8 | %41
!f!!>(! (!arpeggio![^dfb^d']4!>)! [G,B,C]4) |!f!!>(! (!arpeggio![^dfb^d']4!>)! [G,B,C]4) | %43
!f!!>(! (!arpeggio![^dfb^d']4!>)! [G,B,C]4) |!>(! (!arpeggio![^dfb^d']4!>)! [=df^a=d']4) | %45
!p!!>(! !tenuto!c'4!>)!!>(! !tenuto!c'4!>)! |!>(! !tenuto!c'6!>)! z2 | %47
[K:bass]!p!!>(! ([G,B,]/4[F,A,]7/4-)!>)! [F,A,]2 z[K:treble]!p! [F,A,DF]2 [G,B,EG] | %48
!pp! !fermata![^A,CF^A]8 |] %49
V:3
 ([Ac]/4[GB]7/4) ([GB]/4[FA]7/4-) [FA]2 ([FA]/4[EG]7/4) | ([EG]/4[DF]7/4-) [DF]4 x2 | %2
 ([Ac]/4[GB]7/4) ([GB]/4[FA]7/4-) [FA]4 |[M:2/4] x4 |[M:4/4] x2 =G,6 | x8 | x8 | x8 | %8
 ([Ac]/4[GB]7/4) ([FA]/4[EG]7/4) ([EG]/4[DF]7/4-) [DF]2 | %9
 ([Ac]/4[GB]7/4) ([FA]/4[EG]7/4) ([EG]/4[DF]7/4-) [DF]2 | %10
 (!tenuto![=F=f]/8[Ee]7/8-!<(! [Ee]2!<)! ([Ff]) !tenuto![Ff]/8[Ee]7/8-!<(! [Ee]2 [Ff])!<)! | %11
 (!tenuto![=F=f]/8[Ee]7/8-!<(! [Ee]2!<)! ([Ff]) !tenuto![Ff]/8[Ee]7/8- [Ee]2) x | x8 | x8 | %14
 ([Ac]/4[GB]7/4) ([GB]/4[FA]7/4) ([EG]/4[^DF]7/4-) [DF]2- | x8 | %16
[K:bass] ([A,C]/4[B,^D]7/4-) [B,D]2 ([=DF]/4[=CE]7/4-) [CE]2 | %17
 ([A,^C]/4!<(![B,^D]7/4-) [B,D]2 ([=DF]/4[=CE]7/4-) [CE]2!<)! | %18
[K:treble] (([DF]/4[=CE]7/4-)) [CE]2 ([EG]/4[DF]7/4-) [DF]2 | x8 |[M:2/4] x4 | %21
[M:4/4] ([Ac]/4[GB]7/4-) [GB]2 ([FA]/4[EG]7/4-) [EG]2 | ([EG]/4[DF]7/4-) [DF]4 x2 | %23
 ([Ac]/4!<(![GB]7/4) ([GB]/4!<)![F^A]7/4) (=f e3) | x8 |[M:2/4] x4 ||[M:4/4] x8 | x8 | x A,3- x4 | %29
 x A,3- x4 | x8 | x8 | x8 | x8 | %34
[K:bass] ([A,D]/4[B,E]7/4- [B,E]!>(![B,E]-) [B,E]2[K:treble]!>)! x2 | %35
[K:bass] ([=G,=C]/4[A,D]7/4- [A,D][A,D]-) x[K:treble] x3 || [dad']2 x6 |[M:2/4] x4 || %38
[M:4/4] ([Ac]/4[GB]7/4-) [GB]2 ([GB]/4[FA]7/4-) [FA]2 | ([EG]/4[DF]7/4-) [DF]4 x2 | x8 | %41
 x4 z/4"^clair" (F/4G/4^d/4 ^A2 G) | x4 z/4 (F/4G/4^d/4 ^A2 G) | x4 z/4 (F/4G/4^d/4 ^A2 G) | x8 | %45
 ([ac']/4[gb]7/4-) [gb]2 ([fa]/4[eg]7/4-) [eg]2 | ([eg]/4[df]7/4-) [df]4 x2 | %47
[K:bass] (C2 C) z x[K:treble] x3 | x8 |] %49
V:4
 z8 | (!tenuto!B,>F, B,2!<(! B,>C CD/E/)!<)! | (F2 C2)!<(! ((!tenuto!=F/4E7/4-)!<)!!>(! E2)!>)! | %3
[M:2/4] (!tenuto!=F/4E7/4) (!tenuto!=C/4B,7/4) |[M:4/4] (_B,/4A,7/4 =F,/4E,7/4- E,2 D,2) | %5
 [C,,G,,^E,]8 | [C,,G,,^E,]8 | %7
[K:treble]"^molto dim." !tenuto!B,/D^E/ !tenuto!B,/DE/ !tenuto!B,/DE/- E/DE/ | %8
 F2 C2[K:bass] [F,B,]/4[B,,A,]7/4- [B,,A,]2 | F2 C2 [F,B,]/4[B,,A,]7/4- [B,,A,]2 | %10
 [!courtesy!^F,G,B,]4 [!courtesy!^F,A,=C]4 | [!courtesy!^F,G,B,]4 [F,A,=C]4 | z8 | z8 | %14
 (F2 C2) (B,/4A,7/4-) A,2- | A, !tenuto![G,A,]3 z [E,F,]2 [F,A,] | (B,,4 =C,2 =G,2) | %17
 (B,,4 =C,2 A,=G,) |[K:treble] ([_B,_B]2 [_A,_A][=C=c]-) [Cc] ([_B,_B]2 [Dd]) | %19
 (!tenuto![D=F=G]/4[_D_EA]7/4) (!tenuto![=C=D=F]/4[_C_DG]7/4) (!tenuto![=DFG]/4[_DEA]7/4) (!tenuto![=C=DF]/4[_C_DG]7/4) | %20
[M:2/4][K:bass] z4 |[M:4/4]"_doux, mais appuyé" (!tenuto!F4 C4) | (B,>F, B,2- B,>C- CD/E/) | %23
 (F2 C2)[K:treble] (=F E3) |[K:bass] z4 (E D2) z |[M:2/4] B,2 A,B, || %26
[M:4/4]!p!"_pénétrant et expressif" (F, A,2) =F, (E,!<(! =G,2!<)! !courtesy!=B,) | %27
 (^F, A,2) =F, (E,!<(! =G,2!<)! =B,) | (_G,3 _A,,) (_D,,3 _A,) | (_G,3 _A,,) (_D,,3 _A,) | %30
[K:treble] z ([D-F] [D=F]2)[K:bass] z ([=C-E] [C_E]2) | %31
[K:treble] z ([D-F] [D=F]2) z/ [FA]/[F_A]- [FA]2 | z8 | z8 | %34
[K:bass] ([=F,,=C,]/4[D,,=G,,]7/4-) [D,,G,,]2 ([A,,D,]/4[D,,G,,]7/4-) [D,,G,,]2 | %35
 ([_E,,_B,,]/4[=C,,=F,,]7/4-) [C,,F,,]2 ([=G,,=C,]/4[C,,F,,]7/4-) [C,,F,,]2[K:treble] || %36
 [_B,DA]2 z2 z4 |[M:2/4][K:bass] z4 ||[M:4/4] z8 |"_doux, mais appuyé" (B,4 F,2 B,2) | %40
!p! (.[A,C].[B,D].[CE].[DF]!>(![I:staff -1].[EG].[FA].[GB]!>)!.[Ac]) | %41
[I:staff +1][K:treble]"_(sans dureté)" (!arpeggio![B,^DFB]4[K:bass] [E,,B,,E,]4) | %42
[K:treble] (!arpeggio![B,^DFB]4[K:bass] [E,,B,,E,]4) | %43
[K:treble] (!arpeggio![B,^DFB]4[K:bass] [E,,B,,E,]4) |[K:treble] ([B,^DFB]4 [=DF^A]4) | %45
 !tenuto!c4 !tenuto!c4 | !tenuto!c6 z2 | %47
[K:bass] z4 z"^doux et soutenu"!>(! ([D,,A,,D,]2!>)! [E,,B,,E,] | [F,,C,F,]8) |] %49
V:5
 x8 | x8 | x8 |[M:2/4] x4 |[M:4/4] x8 | %5
 z2"_expressif et marqué"!>(! (!tenuto!=F/4=E7/4- E2!>)! D2) | %6
 z2"_expressif et marqué"!>(! (!tenuto!=F/4=E7/4- E2!>)! D2) |[K:treble] x8 | x4[K:bass] x4 | x8 | %10
 z2 .G,,,2 z2 .G,,,2 | z2 .G,,,2 z2 .G,,,2 | x8 | x8 | x4 B,4- | B, x6 C, | z2 E,,6 | z2 E,,6 | %18
[K:treble] x8 | x8 |[M:2/4][K:bass] x4 |[M:4/4] x8 | x8 | x4[K:treble] [CA]4 | %24
[K:bass] x4 !tenuto!B,4- |[M:2/4] x4 ||[M:4/4] x8 | x8 | x8 | x8 | %30
[K:treble] (B,3 .E,)[K:bass] (A,3 .D,) |[K:treble] (B,3 .E,) (D>=G,-) G,2 | x8 | x8 |[K:bass] x8 | %35
 x27/4[K:treble] x5/4 || x8 |[M:2/4][K:bass] x4 ||[M:4/4] x8 | x8 | x8 |[K:treble] x4[K:bass] x4 | %42
[K:treble] x4[K:bass] x4 |[K:treble] x4[K:bass] x4 |[K:treble] x8 | %45
 ([Ac]/4[GB]7/4-) [GB]2 ([FA]/4[EG]7/4-) [EG]2 | ([EG]/4[DF]7/4-) [DF]4 x2 |[K:bass] x8 | %48
 z4 !fermata!F,,,4 |] %49
V:6
 x8 | x8 | x8 |[M:2/4] x4 |[M:4/4] x8 | x2 B,6 | x2 B,6 |[K:treble] x8 | x4[K:bass] x4 | x8 | x8 | %11
 x8 | x8 | x8 | x8 | x8 | x8 | x8 |[K:treble] x8 | x8 |[M:2/4][K:bass] x4 |[M:4/4] x8 | x8 | %23
 x4[K:treble] x4 |[K:bass] x8 |[M:2/4] x4 ||[M:4/4] x8 | x8 | x8 | x8 |[K:treble] x4[K:bass] x4 | %31
[K:treble] x8 | x8 | x8 |[K:bass] x8 | x27/4[K:treble] x5/4 || x8 |[M:2/4][K:bass] x4 || %38
[M:4/4] x8 | x8 | x8 |[K:treble] x4[K:bass] x4 |[K:treble] x4[K:bass] x4 | %43
[K:treble] x4[K:bass] x4 |[K:treble] x8 | x8 | B,6 x2 |[K:bass] x8 | x8 |] %49

